!!!COM: Anon.
!!!OTL: I Will Pursue Him
!!!MPN: Maisuiaksis [Holding Eagle]
!!!ODT: <1918//
!!!MLC: Fort Berthold Reservation, North Dakota, United States of America
!! Song was recorded during either the summer of 1912, 1915, or 1918.
!!!AGN: monody
!!!AST: Mandan and Hidatsa War Songs
!!!AMT: irregular
!!!RWG: Transcribed pitches, durations, and meters are only approximate.
!! Drum not recorded.
**kern
*ICvox
*Imale
*clefF4
*k[b-]
*M2/4
*MM69
8c
=1
4f
16f
16c
8c
*M3/4
=2
4f
16c
8.c
8.c
16B-
=3
8.B-
16A
8.F
16B-
8B-
8A
=4
16F
[8.F
8.F]
16F
8.F
16F
*M2/4
=5
4.F
16F
16F
=6
8.F
16F
4F
=7
2C
16C
8.C
8.C
16C
=8
2C
==
*-
!!!CNT: Hidatsa
!!!TXO: Hidatsa
!!!OCY: United States
!!!OCL: Frances Densmore
!!!YOR: Frances Densmore, "Mandan and Hidatsa Music",
!!!YOR: Bulletin 80, page 165, No. 96
!!!PPR: Smithsonian Institution, Bureau of American Ethnology
!!!PPR: Government Printing Office
!!!PDT: 1923
!!!PPP: Washington, DC, United States of America
!!!YEC: Electronic Copyright 2000 David Huron
!!!YER: August 2000
!!!YEN: United States of America
!!!ENC: David Huron
!!!RDT: August 18, 2000
!!!EEV: Release 1.0
!!!AIN: tom, vox
